X: 905
T: Gözlerin Bir İçim Su
C: Ferit Sıdal
O: Turkey
F: http://compmusic.upf.edu/node/140
N: suzinak-zirgule--sarki--aksak--gozlerin_bir--ferit_sidal
N: makam= suzinak-zirgule
N: form= sarki
N: usul= aksak = 9/8
M: 9/8
L: 1/16
K: C _1/4B _7/8e _7/8A ^f
Q: 1/4=252
%%MIDI tuningsystem comma53
Bc.d2 .B2.G2 B2c2 d4 c2 | ed cdc2 d2B2 A2G6  | \
w:  ARANAĞME  |   | 
cde2 dcB2 c2d2 e4 d2 | 
w:   | 
ed cBc2 d2e2 f2g6  | f2g4a2 g2f2 e2d2 c2 | \
w:   |   | 
d2 e4 dc(3B2c2^c2d4z2  | 
w:   | 
Bc.d2 Bc.d2 Bc.d2 B2A2 G2 | ed cdc2 d2B2 A2G6  | 
w:   |   | 
Bc.d2 .B2.G2 B2c2 d4 c2 | ed cdc2 d2B2 A2G6  | \
w:  ARANAĞME  |   | 
cde2 dcB2 c2d2 e4 d2 | 
w:   | 
ed cBc2 d2e2 f2g6  | f2g4a2 g2f2 e2d2 c2 | \
w:   |   | 
d2 e4 dc(3B2c2^c2d4z2  | 
w:   | 
Bc.d2 Bc.d2 Bc.d2 B2A2 G2 | ed cdc2 d2B2 A2G6  | 
w:   |   | 
B4 c4 d4 e2{f}d2 {e}c2 | B2 B2{c}A2 G2G4GA Bcde  | \
w:  Göz le rin  bir   |  i çim  *  *  *  su   SAZ  | 
d2e6 e2d2 c4 B2 | 
w:  İ çim  yan *  dı   | 
c2 d2e2 d2d4B2 A2G2  | B4 c4 d4 e2{f}d2 {e}c2 | \
w:  doğ *  ru *  su   SAZ  |  Göz le rin  bir   | 
B2 B2{c}A2 G2G4GA Bcde  | 
w:  i çim  *  *  *  su   SAZ  | 
d2e6 e2d2 c4 B2 | c2 d2e2 d2d4e2 f2g2  | \
w:  İ çim  yan *  dı   |  doğ *  ru *  su   SAZ  | 
f2g6 g4 f2{g}e2 d2 | d2 e4 f2d2 {e}c2{d}B2 {c}A2G2  | 
w:  Ö pe yim  göz  |  le rin *  den    | 
c4 d4 e2{f}e2 {f}d2c2 d2 | B2 A2A2 G2G4e2 f2g2  | \
w:  Kal maz  gö *  *  *  nül   |  kor *  ku *  su   SAZ  | 
f2g6 g4 f2{g}e2 d2 | 
w:  Ö pe yim  göz  | 
d2 e4 f2d2 {e}c2{d}B2 {c}A2G2  | c4 d4 e2{f}e2 {f}d2c2 d2 | \
w:  le rin *  den    |  Kal maz  gö *  *  *  nül   | 
B2 A2A2 G2G4.B2 .c2.d2  | 
w:  kor *  ku *  su   SAZ  | 
c2.d6 z4 B2A2 G2 | c2 .d6z4B2 A2G2  | \
w:  A man  gü ze lim    |  ca nım  gü ze lim    | 
B4 c2e2 {f}d2{e}c2 B2c2 d2 | e6 B2c2 d2e6  | 
w:  ben  sa na  *  yan *  *  mı  |  şım   SAZ  | 
d2.e6 e4 d2c2 B2 | c2 .d6d4B2 A2G2  | \
w:  Gü zel  söz le ri ne    |  ye şil  göz le ri ne    | 
e4 d2c2 B2A2 B2A2 G2 | G6 Bcd2 B2G4z2  | 
w:  hep  al *  dan *  mı  |  şım   SAZ  | 
c2.d6 z4 B2A2 G2 | c2 .d6z4B2 A2G2  | \
w:  A man  gü ze lim    |  ca nım  gü ze lim    | 
B4 c2e2 {f}d2{e}c2 B2c2 d2 | e6 B2c2 d2e6  | 
w:  ben  sa na  *  yan *  *  mı  |  şım   SAZ  | 
d2.e6 e4 d2c2 B2 | c2 .d6d4B2 A2G2  | \
w:  Gü zel  söz le ri ne    |  ye şil  göz le ri ne    | 
e4 d2c2 B2A2 B2A2 G2 | G6 Bcd2 B2G4z2  | 
w:  hep  al *  dan *  mı  |  şım   SAZ  | 
Bc.d2 .B2.G2 B2c2 d4 c2 | ed cdc2 d2B2 A2G6  | \
w:  ARANAĞME  |   | 
cde2 dcB2 c2d2 e4 d2 | 
w:   | 
ed cBc2 d2e2 f2g6  | f2g4a2 g2f2 e2d2 c2 | \
w:   |   | 
d2 e4 dc(3B2c2^c2d4z2  | 
w:   | 
Bc.d2 Bc.d2 Bc.d2 B2A2 G2 | ed cdc2 d2B2 A2G6  | 
w:   |   | 
Bc.d2 .B2.G2 B2c2 d4 c2 | ed cdc2 d2B2 A2G6  | \
w:  ARANAĞME  |   | 
cde2 dcB2 c2d2 e4 d2 | 
w:   | 
ed cBc2 d2e2 f2g6  | f2g4a2 g2f2 e2d2 c2 | \
w:   |   | 
d2 e4 dc(3B2c2^c2d4z2  | 
w:   | 
Bc.d2 Bc.d2 Bc.d2 B2A2 G2 | ed cdc2 d2B2 A2G6  | 
w:   |   | 
B4 c4 d4 e2{f}d2 {e}c2 | B2 B2{c}A2 G2G4GA Bcde  | \
w:  Göz le rin  bir   |  i çim  *  *  *  su   SAZ  | 
d2e6 e2d2 c4 B2 | 
w:  İ çim  yan *  dı   | 
c2 d2e2 d2d4B2 A2G2  | B4 c4 d4 e2{f}d2 {e}c2 | \
w:  doğ *  ru *  su   SAZ  |  Göz le rin  bir   | 
B2 B2{c}A2 G2G4GA Bcde  | 
w:  i çim  *  *  *  su   SAZ  | 
d2e6 e2d2 c4 B2 | c2 d2e2 d2d4e2 f2g2  | \
w:  İ çim  yan *  dı   |  doğ *  ru *  su   SAZ  | 
f2g6 g4 f2{g}e2 d2 | d2 e4 f2d2 {e}c2{d}B2 {c}A2G2  | 
w:  Ö pe yim  göz  |  le rin *  den    | 
c4 d4 e2{f}e2 {f}d2c2 d2 | B2 A2A2 G2G4e2 f2g2  | \
w:  Kal maz  gö *  *  *  nül   |  kor *  ku *  su   SAZ  | 
f2g6 g4 f2{g}e2 d2 | 
w:  Ö pe yim  göz  | 
d2 e4 f2d2 {e}c2{d}B2 {c}A2G2  | c4 d4 e2{f}e2 {f}d2c2 d2 | \
w:  le rin *  den    |  Kal maz  gö *  *  *  nül   | 
B2 A2A2 G2G4.B2 .c2.d2  | 
w:  kor *  ku *  su   SAZ  | 
c2.d6 z4 B2A2 G2 | c2 .d6z4B2 A2G2  | \
w:  A man  gü ze lim    |  ca nım  gü ze lim    | 
B4 c2e2 {f}d2{e}c2 B2c2 d2 | e6 B2c2 d2e6  | 
w:  ben  sa na  *  yan *  *  mı  |  şım   SAZ  | 
d2.e6 e4 d2c2 B2 | c2 .d6d4B2 A2G2  | \
w:  Gü zel  söz le ri ne    |  ye şil  göz le ri ne    | 
e4 d2c2 B2A2 B2A2 G2 | G6 Bcd2 B2G4z2  | 
w:  hep  al *  dan *  mı  |  şım   SAZ  | 
c2.d6 z4 B2A2 G2 | c2 .d6z4B2 A2G2  | \
w:  A man  gü ze lim    |  ca nım  gü ze lim    | 
B4 c2e2 {f}d2{e}c2 B2c2 d2 | e6 B2c2 d2e6  | 
w:  ben  sa na  *  yan *  *  mı  |  şım   SAZ  | 
d2.e6 e4 d2c2 B2 | c2 .d6d4B2 A2G2  | \
w:  Gü zel  söz le ri ne    |  ye şil  göz le ri ne    | 
e4 d2c2 B2A2 B2A2 G2 | G6 Bcd2 B2G4z2  | 
w:  hep  al *  dan *  mı  |  şım   SAZ  | 
|


